X: 35137
T: Romp, The
R: reel
M: 4/4
K: Dmajor
|:d4 A2 Bc|B2 B2 A4|d2 fd B2 cd|efge dcBA|
d4 A2 Bc|B2 B2 A4|d2 fd Bege|d2 c2 d4:|
|:Adfd Bege|ceae dgbg|gfed c2 d2|edcB A4|
Adfd Bege|ceae dgbg|gfed B2 c2|d4 D4:|

